X:1
T:Title
%%score { ( 1 4 ) | ( 2 3 ) }
L:1/8
Q:1/4=110
M:4/4
K:C
V:1 treble nm="Grand Piano"
V:4 treble 
V:2 bass 
V:3 bass 
V:1
 [CEG]4 [G,CE]2 [G,DF]2 | [CFA]2 [CEG]2 [CEG]4 | [DFB]4 [CFA]2 [B,FG]2 | [CEG]4 [CE]2 z2 | %4
w: W.~H.~Doane * *||||
 [CEG]4 [G,CE]2 [G,DF]2 | [CFA]2 [CEG]2 [G,CE]2 [G,EG]2 | [EB]4 B2 A2 | G8 | [CEG]4 [G,CE]2 [Ec]2 | %9
w: |||||
 c3 B B4 | A4 F2 [B,FA]2 | [CEG]4 [CE]2 z2 | [Ec]4 [Fc]2 [Gc]2 | [GB]2 A2 G2 c2 | e4 d4 | %15
w: ||||||
 [Ec]6 z2 |] %16
w: |
V:2
 C,4 C,2 C,2 | C,2 C,2 C,4 | G,4 G,2 G,,2 | z4 G,2 z2 | C,4 C,2 C,2 | C,2 C,2 C,2 C,2 | %6
 [B,,G,]4 ^F,2 B,2 | [E,E]4 z4 | C,4 C,2 [C,G,]2 | [G,E]3 [G,DF] [G,DF]4 | %10
 [G,B,F]4 [G,B,D]2[K:bass] G,,2 | z4 G,2 z2 | [C,G,]4 [D,G,]2 [E,C]2 | %13
 [F,C]2 [F,CF]2 [G,CE]2 [A,CE]2 | [G,C]4 B,2 z2 | [C,G,]6 z2 |] %16
V:3
 x8 | x8 | x8 | C,6 z2 | x8 | x8 | z4 B,,4 | B,4- [D,B,]4 | x8 | x8 | x6[K:bass] x2 | C,6 z2 | x8 | %13
 x8 | E2 z2 [G,,F]4 | x8 |] %16
V:4
 x8 | x8 | x8 | x8 | x8 | x8 | z4 _E4 | z4 F4 | x8 | x8 | x8 | x8 | x8 | x8 | z2 G2 z2 G,2 | x8 |] %16

